X: 139036
T: BILLY O'ROURKE
Q: "Irish Jig."
R: Jig.
%R: jig
B: James Kerr "Merry Melodies" v.1 p.39 s.0 #36
Z: 2016 John Chambers <jc:trillian.mit.edu>
M: 6/8
L: 1/8
K: D
vf/ue/ !segno!|\
vd2vB BcB | vA2vA uA2uA | vB2vB BcB | g3 (f2e) |\
vd2vB BcB | A2A A2A | Bcd ecA | d3 d2 H:|
uA |\
vd2ve uf2ug | a2b a2f | d2e f2g | a3 (f2a) |\
b2b a2a | g>ag f2e | d2B BcB | g3 (f2"_D.C."e) |]

%%sep 1 1 500
%%sep 1 1 500

